material/.icons/material/flask-round-bottom-outline.svg

<svg xmlns="http://www.w3.org/2000/svg" viewBox="0 0 24 24"><path d="M15 15c0 1.66-1.34 3-3 3s-3-1.34-3-3v-1h2v1c0 .55.45 1 1 1s1-.45 1-1v-1h2v1m4 0c0 3.87-3.13 7-7 7s-7-3.13-7-7c0-2.79 1.64-5.2 4-6.33V5c0-.55.45-1 1-1h.5l-1-2h5l-1 2h.5c.55 0 1 .45 1 1v3.67c2.36 1.13 4 3.54 4 6.33m-8-9v4.1a5 5 0 102 0V6h-2z"/></svg>

<?xml version="1.0" encoding="UTF-8"?><!DOCTYPE svg PUBLIC "-//W3C//DTD SVG 1.1//EN" "http://www.w3.org/Graphics/SVG/1.1/DTD/svg11.dtd"><svg xmlns="http://www.w3.org/2000/svg" xmlns:xlink="http://www.w3.org/1999/xlink" version="1.1" id="mdi-flask-round-bottom-outline" width="24" height="24" viewBox="0 0 24 24"><path d="M15 15C15 16.66 13.66 18 12 18C10.34 18 9 16.66 9 15V14H11V15C11 15.55 11.45 16 12 16C12.55 16 13 15.55 13 15V14H15V15M19 15C19 18.87 15.87 22 12 22C8.13 22 5 18.87 5 15C5 12.21 6.64 9.8 9 8.67V5C9 4.45 9.45 4 10 4H10.5L9.5 2H14.5L13.5 4H14C14.55 4 15 4.45 15 5V8.67C17.36 9.8 19 12.21 19 15M11 6V10.1C8.72 10.56 7 12.58 7 15C7 17.76 9.24 20 12 20C14.76 20 17 17.76 17 15C17 12.58 15.28 10.56 13 10.1V6H11Z" /></svg>
